X: 1282
T: Follow Me Down To Carlow - 2nd Setting
R: reel
N: Collected By J. O'Neill
B: O'Neill's 1850 #1282
Z: Trish O'Neil
M: C|
L: 1/8
K: Am
|:\
(3(ABA) A>G E>^FG2 | (3(ABA) A>B c>de>d |\
c>Bc>G E>^F^G>B | (3(ABc) B>G A2A2 H:|\
e>aa>g e>^fg2 | (3(BcB) B>G G>A (3(Bcd) |
|\
e>aa>g e>^fg2 | (3(BcB) B>G A2A2 ||\
e>aa>g e>^fg2 | (3(BcB) B>A G>A (3(Bcd) |\
e>g^f>a g>ag>e | d>BG>B g>dB>G |]
